src/pos-icons/book-open-page-variant.svg

<svg height="24" viewBox="0 0 24 24" width="24" xmlns="http://www.w3.org/2000/svg"><path d="m19 2-5 4.5v11l5-4.5zm-12.5 3c-1.95 0-4.05.4-5.5 1.5v14.66c0 .25.25.5.5.5.1 0 .15-.07.25-.07 1.35-.65 3.3-1.09 4.75-1.09 1.95 0 4.05.4 5.5 1.5 1.35-.85 3.8-1.5 5.5-1.5 1.65 0 3.35.31 4.75 1.06.1.05.15.03.25.03.25 0 .5-.25.5-.5v-14.59c-.6-.45-1.25-.75-2-1v2 5.5 6c-1.1-.35-2.3-.5-3.5-.5-1.7 0-4.15.65-5.5 1.5v-7-4.5-2c-1.45-1.1-3.55-1.5-5.5-1.5z"/></svg>

<?xml version="1.0" encoding="UTF-8"?><!DOCTYPE svg PUBLIC "-//W3C//DTD SVG 1.1//EN" "http://www.w3.org/Graphics/SVG/1.1/DTD/svg11.dtd"><svg xmlns="http://www.w3.org/2000/svg" xmlns:xlink="http://www.w3.org/1999/xlink" version="1.1" id="mdi-book-open-page-variant" width="24" height="24" viewBox="0 0 24 24"><path d="M19,2L14,6.5V17.5L19,13V2M6.5,5C4.55,5 2.45,5.4 1,6.5V21.16C1,21.41 1.25,21.66 1.5,21.66C1.6,21.66 1.65,21.59 1.75,21.59C3.1,20.94 5.05,20.5 6.5,20.5C8.45,20.5 10.55,20.9 12,22C13.35,21.15 15.8,20.5 17.5,20.5C19.15,20.5 20.85,20.81 22.25,21.56C22.35,21.61 22.4,21.59 22.5,21.59C22.75,21.59 23,21.34 23,21.09V6.5C22.4,6.05 21.75,5.75 21,5.5V7.5L21,13V19C19.9,18.65 18.7,18.5 17.5,18.5C15.8,18.5 13.35,19.15 12,20V13L12,8.5V6.5C10.55,5.4 8.45,5 6.5,5V5Z" /></svg>
